elementosh-icons/apps/16/system-file-manager.svg

<?xml version="1.0" encoding="UTF-8" standalone="no"?>
<svg
   xmlns:dc="http://purl.org/dc/elements/1.1/"
   xmlns:cc="http://creativecommons.org/ns#"
   xmlns:rdf="http://www.w3.org/1999/02/22-rdf-syntax-ns#"
   xmlns:svg="http://www.w3.org/2000/svg"
   xmlns="http://www.w3.org/2000/svg"
   xmlns:xlink="http://www.w3.org/1999/xlink"
   version="1.1"
   width="16"
   height="16"
   id="svg8860">
  <defs
     id="defs8862">
    <linearGradient
       x1="11.350123"
       y1="0.66696572"
       x2="11.350123"
       y2="8.1721792"
       id="linearGradient10270-0"
       xlink:href="#linearGradient3454-2-5-0-3-8"
       gradientUnits="userSpaceOnUse"
       gradientTransform="matrix(0.89189031,0,0,0.94046961,3.14398,5.346537)" />
    <linearGradient
       id="linearGradient3454-2-5-0-3-8">
      <stop
         id="stop3456-4-9-38-1-9"
         style="stop-color:#ffffff;stop-opacity:1"
         offset="0" />
      <stop
         id="stop3458-39-80-3-5-6"
         style="stop-color:#ffffff;stop-opacity:0.23529412"
         offset="0.0097359" />
      <stop
         id="stop3460-7-0-2-4-4"
         style="stop-color:#ffffff;stop-opacity:0.15686275"
         offset="0.99001008" />
      <stop
         id="stop3462-0-9-8-7-8"
         style="stop-color:#ffffff;stop-opacity:0.39215687"
         offset="1" />
    </linearGradient>
    <linearGradient
       id="linearGradient4346">
      <stop
         id="stop4348"
         style="stop-color:#ffffff;stop-opacity:1"
         offset="0" />
      <stop
         id="stop4350"
         style="stop-color:#d8d8d8;stop-opacity:1"
         offset="1" />
    </linearGradient>
    <linearGradient
       x1="62.988873"
       y1="11.645091"
       x2="62.988873"
       y2="15.385052"
       id="linearGradient8858"
       xlink:href="#linearGradient4346"
       gradientUnits="userSpaceOnUse"
       gradientTransform="matrix(0.33333327,0,0,0.32971018,-17.44063,-0.64784268)" />
    <linearGradient
       x1="-162.6788"
       y1="58.56691"
       x2="-162.6788"
       y2="80.030975"
       id="linearGradient5954"
       xlink:href="#linearGradient4632-0-6-4-4-4-3"
       gradientUnits="userSpaceOnUse"
       gradientTransform="matrix(0.50413225,0,0,0.49333391,93.640247,-24.864023)" />
    <linearGradient
       id="linearGradient4632-0-6-4-4-4">
      <stop
         id="stop4634-4-4-7-4"
         style="stop-color:#efdfc4;stop-opacity:1"
         offset="0" />
      <stop
         id="stop4636-3-1-5-9"
         style="stop-color:#e7c591;stop-opacity:1"
         offset="1" />
    </linearGradient>
    <linearGradient
       xlink:href="#linearGradient4632-0-6-4-4-4-3"
       id="linearGradient1048"
       gradientUnits="userSpaceOnUse"
       gradientTransform="matrix(0.50413225,0,0,0.49333391,4.108882,-36.937122)"
       x1="23.587299"
       y1="64.737335"
       x2="23.587299"
       y2="103.2508" />
    <linearGradient
       id="linearGradient4632-0-6-4-4-4-3">
      <stop
         offset="0"
         style="stop-color:#8cd5ff;stop-opacity:1"
         id="stop4634-4-4-7-4-6" />
      <stop
         offset="1"
         style="stop-color:#64baff;stop-opacity:1"
         id="stop4636-3-1-5-9-7" />
    </linearGradient>
  </defs>
  <metadata
     id="metadata8865">
    <rdf:RDF>
      <cc:Work
         rdf:about="">
        <dc:format>image/svg+xml</dc:format>
        <dc:type
           rdf:resource="http://purl.org/dc/dcmitype/StillImage" />
        <dc:title></dc:title>
      </cc:Work>
    </rdf:RDF>
  </metadata>
  <path
     style="color:#000000;display:inline;overflow:visible;visibility:visible;opacity:0.5;vector-effect:none;fill:none;fill-opacity:1;stroke:#7e8087;stroke-width:1;stroke-linecap:square;stroke-linejoin:miter;stroke-miterlimit:4;stroke-dasharray:none;stroke-dashoffset:0;stroke-opacity:1;marker:none;enable-background:accumulate"
     id="rect4170"
     d="M 15.5,3.9996665 V 2.7263335 C 15.5,2.5878335 15.41182,2.5 15.27332,2.5 H 8.5 V 1.757917 C 8.5,1.619417 8.41182,1.5 8.27332,1.5 h -6.5 C 1.63482,1.5 1.5,1.619417 1.5,1.757917 V 2.5 H 0.773 C 0.6345,2.5 0.5,2.588167 0.5,2.726667 V 4" />
  <path
     style="color:#000000;display:inline;overflow:visible;visibility:visible;fill:url(#linearGradient8858);fill-opacity:1;fill-rule:nonzero;stroke:none;stroke-width:0.99992168;marker:none;enable-background:accumulate"
     id="rect4170-0"
     d="M 2,2 V 3 H 1 V 7 H 15 V 3 H 8 V 2 Z" />
  <path
     style="color:#000000;display:inline;overflow:visible;visibility:visible;opacity:1;vector-effect:none;fill:url(#linearGradient5954);fill-opacity:1.0;stroke:#0d52bf;stroke-width:1;stroke-linecap:butt;stroke-linejoin:round;stroke-miterlimit:4;stroke-dasharray:none;stroke-dashoffset:0;stroke-opacity:0.49803922;marker:none;enable-background:accumulate"
     id="rect3086-0"
     d="m 0.5,4.5 h 15 v 10 h -15 z" />
  <path
     style="color:#000000;display:inline;overflow:visible;visibility:visible;opacity:0.5;fill:none;stroke:url(#linearGradient10270-0);stroke-width:1;stroke-linecap:round;stroke-linejoin:miter;stroke-miterlimit:4;stroke-dasharray:none;stroke-dashoffset:0;stroke-opacity:1;marker:none;enable-background:accumulate"
     id="rect3086-9"
     d="m 1.5,5.5 h 13 v 8 h -13 z" />
</svg>

<?xml version="1.0" encoding="UTF-8" standalone="no"?>
<svg
   xmlns:dc="http://purl.org/dc/elements/1.1/"
   xmlns:cc="http://creativecommons.org/ns#"
   xmlns:rdf="http://www.w3.org/1999/02/22-rdf-syntax-ns#"
   xmlns:svg="http://www.w3.org/2000/svg"
   xmlns="http://www.w3.org/2000/svg"
   xmlns:xlink="http://www.w3.org/1999/xlink"
   version="1.1"
   width="16"
   height="16"
   id="svg8860">
  <defs
     id="defs8862">
    <linearGradient
       x1="11.350123"
       y1="0.66696572"
       x2="11.350123"
       y2="8.1721792"
       id="linearGradient10270-0"
       xlink:href="#linearGradient3454-2-5-0-3-8"
       gradientUnits="userSpaceOnUse"
       gradientTransform="matrix(0.89189031,0,0,0.94046961,3.14398,5.346537)" />
    <linearGradient
       id="linearGradient3454-2-5-0-3-8">
      <stop
         id="stop3456-4-9-38-1-9"
         style="stop-color:#ffffff;stop-opacity:1"
         offset="0" />
      <stop
         id="stop3458-39-80-3-5-6"
         style="stop-color:#ffffff;stop-opacity:0.23529412"
         offset="0.0097359" />
      <stop
         id="stop3460-7-0-2-4-4"
         style="stop-color:#ffffff;stop-opacity:0.15686275"
         offset="0.99001008" />
      <stop
         id="stop3462-0-9-8-7-8"
         style="stop-color:#ffffff;stop-opacity:0.39215687"
         offset="1" />
    </linearGradient>
    <linearGradient
       x1="76.041"
       y1="49.372032"
       x2="76.041"
       y2="35.430561"
       id="linearGradient10268-4"
       xlink:href="#linearGradient6129-963-697-142-998-580-273-44-2-2-2"
       gradientUnits="userSpaceOnUse"
       gradientTransform="matrix(0.38156409,0,0,0.32896952,-18.24159,0.28216731)" />
    <linearGradient
       id="linearGradient6129-963-697-142-998-580-273-44-2-2-2">
      <stop
         id="stop2661-01-6-2-4"
         style="stop-color:#0a0a0a;stop-opacity:0.498"
         offset="0" />
      <stop
         id="stop2663-64-5-5-3"
         style="stop-color:#0a0a0a;stop-opacity:0"
         offset="1" />
    </linearGradient>
    <linearGradient
       x1="84.30883"
       y1="16.110577"
       x2="84.30883"
       y2="42.923553"
       id="linearGradient10262-3"
       xlink:href="#linearGradient4632-0-6-4-4"
       gradientUnits="userSpaceOnUse"
       gradientTransform="matrix(0.33333327,0,0,0.34148555,-17.08621,-0.60407268)" />
    <linearGradient
       id="linearGradient4632-0-6-4-4">
      <stop
         id="stop4634-4-4-7-5"
         style="stop-color:#8cd5ff;stop-opacity:1"
         offset="0" />
      <stop
         id="stop4636-3-1-5-4"
         style="stop-color:#64baff;stop-opacity:1"
         offset="1" />
    </linearGradient>
    <linearGradient
       x1="-51.786404"
       y1="53.514328"
       x2="-51.786404"
       y2="2.0612748"
       id="linearGradient10473-4-0"
       xlink:href="#linearGradient3104-8-8-97-4-6-11-5-5-4-4"
       gradientUnits="userSpaceOnUse"
       gradientTransform="matrix(0.31070043,0,0,0.27489387,20.17717,-0.10316268)" />
    <linearGradient
       id="linearGradient3104-8-8-97-4-6-11-5-5-4-4">
      <stop
         id="stop3106-5-4-3-5-0-2-1-0-7-7"
         style="stop-color:#000000;stop-opacity:0.32173914"
         offset="0" />
      <stop
         id="stop3108-4-3-7-8-2-0-7-9-0-6"
         style="stop-color:#000000;stop-opacity:0.27826086"
         offset="1" />
    </linearGradient>
    <linearGradient
       id="linearGradient4346">
      <stop
         id="stop4348"
         style="stop-color:#ffffff;stop-opacity:1"
         offset="0" />
      <stop
         id="stop4350"
         style="stop-color:#d8d8d8;stop-opacity:1"
         offset="1" />
    </linearGradient>
    <linearGradient
       x1="62.988873"
       y1="11.645091"
       x2="62.988873"
       y2="15.385052"
       id="linearGradient8858"
       xlink:href="#linearGradient4346"
       gradientUnits="userSpaceOnUse"
       gradientTransform="matrix(0.33333327,0,0,0.32971018,-17.44063,-0.64784268)" />
  </defs>
  <metadata
     id="metadata8865">
    <rdf:RDF>
      <cc:Work
         rdf:about="">
        <dc:format>image/svg+xml</dc:format>
        <dc:type
           rdf:resource="http://purl.org/dc/dcmitype/StillImage" />
        <dc:title />
      </cc:Work>
    </rdf:RDF>
  </metadata>
  <g
     id="layer1">
    <path
       d="m 2.02332,1.976667 0,1 -1,0 0,4 14,0 0,-4 -7,0 0,-1 -6,0 z"
       id="rect4170-0"
       style="color:#000000;fill:url(#linearGradient8858);fill-opacity:1;fill-rule:nonzero;stroke:none;stroke-width:0.99992168;marker:none;visibility:visible;display:inline;overflow:visible;enable-background:accumulate" />
    <path
       d="m 15.52332,4 0,-1.273333 c 0,-0.1385 -0.1115,-0.25 -0.25,-0.25 l -6.75,0 0,-0.71875 c 0,-0.1385 -0.1115,-0.25 -0.25,-0.25 l -6.5,0 c -0.1385,0 -0.25,0.1115 -0.25,0.25 l 0,0.71875 -0.75,0 c -0.1385,0 -0.25,0.1115 -0.25,0.25 L 0.52332,4"
       id="rect4170"
       style="opacity:0.8;color:#000000;fill:none;stroke:url(#linearGradient10473-4-0);stroke-width:1;stroke-linecap:butt;stroke-linejoin:miter;stroke-miterlimit:4;stroke-opacity:1;stroke-dasharray:none;stroke-dashoffset:0;marker:none;visibility:visible;display:inline;overflow:visible;enable-background:accumulate" />
    <path
       d="m 0.55988,4.453367 c 0.75732,0 14.39951,0.0316 14.98675,0.0316 0,0.6186 -0.0285,10.00962 -0.0624,10.00962 -5.26001,0.0178 -13.45265,-0.014 -14.98423,-0.014 0,-1.16748 0.0599,-7.62459 0.0599,-10.02721 z"
       id="rect3086"
       style="color:#000000;fill:url(#linearGradient10262-3);fill-opacity:1;fill-rule:nonzero;stroke:none;stroke-width:1;marker:none;visibility:visible;display:inline;overflow:visible;enable-background:accumulate" />
    <path
       d="m 0.08698,3.976647 c 0.8053,0 15.31189,0.0341 15.93634,0.0341 0,0.67729 -0.0303,10.95971 -0.0663,10.95971 -5.5933,0.02 -14.30504,-0.0148 -15.93366,-0.0148 0,-1.2783 0.0636,-8.34831 0.0636,-10.97898 z"
       id="rect3086-1"
       style="opacity:0.4;color:#000000;fill:url(#linearGradient10268-4);fill-opacity:1;fill-rule:nonzero;stroke:none;stroke-width:1;marker:none;visibility:visible;display:inline;overflow:visible;enable-background:accumulate" />
    <path
       d="m 1.57504,5.476667 c 0.65431,0 12.44092,0.0251 12.94828,0.0251 0,0.49259 -0.0246,7.97055 -0.0539,7.97055 -4.54455,0.0142 -11.62285,-0.0111 -12.9461,-0.0111 0,-0.92965 0.0517,-6.07138 0.0517,-7.98455 z"
       id="rect3086-9"
       style="opacity:0.5;color:#000000;fill:none;stroke:url(#linearGradient10270-0);stroke-width:1.00000012;stroke-linecap:round;stroke-linejoin:miter;stroke-miterlimit:4;stroke-opacity:1;stroke-dasharray:none;stroke-dashoffset:0;marker:none;visibility:visible;display:inline;overflow:visible;enable-background:accumulate" />
    <path
       d="m 0.55988,4.453367 c 0.75732,0 14.39951,0.0316 14.98675,0.0316 0,0.6186 -0.0285,10.00962 -0.0624,10.00962 -5.26001,0.0178 -13.45265,-0.014 -14.98423,-0.014 0,-1.16748 0.0599,-7.62459 0.0599,-10.02721 z"
       id="rect3086-0"
       style="opacity:0.3;color:#000000;fill:none;stroke:#000000;stroke-width:1;stroke-linecap:round;stroke-linejoin:round;stroke-miterlimit:4;stroke-opacity:1;stroke-dasharray:none;stroke-dashoffset:0;marker:none;visibility:visible;display:inline;overflow:visible;enable-background:accumulate" />
  </g>
</svg>
